X:1
T:La Bourr?e ? Huit
R:Bourree
B:Massif Central Tune Book no 2 number 17
M:3/8
L:1/8
K:G
d2^c|d2 A/B/|cBA|BGG|d2^c|d2 A/B/|cBA|1G3:|2G2D||
GFG|D2G|F/G/Ad|BGG|GFG|D2G|F/G/AF|1G2:|2G3|]
<end>
<start>
